X:1
T:Jack Smith's Favorite -- Reel
R:reel
B:Ryan's Mammoth Collection
N: 307
Z: Contributed by Ray Davies,  ray:davies99.freeserve.co.uk
M:2/4
L:1/16
K:C
u(gf)|\
ecBc GcBc | ecge .c2(de) | .f(d^cd) .A(dcd) | fdaf .d2(gf) |
ecBc AcBc | ecge .c2(fg) | afge fdec | GcBd c2:|
|:ugf|\
ef.g2 ef.g2 | efge .c2(de) | fg.a2 fg.a2 | fgaf .d2(gf) |
ef.g2 ef.g2 | efge cefg | afge fdec | GcBd c2:|
